assets/images/avatar/Avatar 03.svg

<svg fill="none" height="128" viewBox="0 0 128 128" width="128" xmlns="http://www.w3.org/2000/svg" xmlns:xlink="http://www.w3.org/1999/xlink"><mask id="a" height="123" maskUnits="userSpaceOnUse" width="114" x="7" y="2"><path clip-rule="evenodd" d="m60.8774 2.75269c16.8576.35194 30.4342 11.76131 41.2426 24.69321 11.215 13.419 20.577 29.1001 18.191 46.42-2.638 19.1568-13.505 37.1771-30.8768 45.6991-17.5074 8.588-38.6614 6.49-55.5133-3.321-15.4255-8.98-22.4588-26.3832-25.65718-43.9336-2.98804-16.3959-.90431-33.3377 9.15218-46.6328 10.3923-13.7391 26.2301-23.28464 43.4615-22.92491z" fill="#eff6f7" fill-rule="evenodd"/></mask><g mask="url(#a)"><path clip-rule="evenodd" d="m60.8774 2.75269c16.8576.35194 30.4342 11.76131 41.2426 24.69321 11.215 13.419 20.577 29.1001 18.191 46.42-2.638 19.1568-13.505 37.1771-30.8768 45.6991-17.5074 8.588-38.6614 6.49-55.5133-3.321-15.4255-8.98-22.4588-26.3832-25.65718-43.9336-2.98804-16.3959-.90431-33.3377 9.15218-46.6328 10.3923-13.7391 26.2301-23.28464 43.4615-22.92491z" fill="#eff6f7" fill-rule="evenodd"/><path d="m107.429 96.2129c-6.934-3.2975-6.678-1.7585-18.4446-7.677-9.664-4.8579-12.8-15.104-12.8-24.1737.0166-1.5915-.3021-3.1688-.9353-4.629-.6333-1.4603-1.5669-2.7708-2.7402-3.8464-4.227-3.8522-9.0484-4.7573-14.1562-2.2735-4.2666 2.0693-7.104 5.9185-7.104 10.7489 0 9.0697-3.1482 19.3158-12.8 24.1737-11.7668 5.9185-11.5139 4.3795-18.4472 7.677-12.7147 6.0461-14.93335 15.9791-17.2465 28.3951h121.938c-2.325-12.413-4.55-22.346-17.264-28.3951z" fill="#e7baef"/><path d="m77.2693 73.2674c-1.4537-3.837-1.0941-4.9737-1.0941-8.9021.0174-1.5917-.3009-3.1692-.9342-4.6295-.6333-1.4604-1.5674-2.7709-2.7413-3.8459-4.227-3.8522-9.0483-4.7574-14.1561-2.2736-4.2667 2.0694-7.104 5.9185-7.104 10.749 0 5.0103-.9692 10.3619-3.456 14.9973 6.1592 4.7238 24.9661 3.7882 29.4857-6.0952z" fill="#db9fe6"/><path d="m124.669 124.608h-121.92614c2.30705-12.416 4.5196-22.346 17.24344-28.3951 6.9364-3.2884 6.6743-1.7493 18.4381-7.6678 2.002-.9928 3.8324-2.2995 5.4217-3.8705 1.9779 7.8598 10.1181 13.7417 19.8583 13.7417s17.8956-5.8819 19.8735-13.7417c1.5849 1.5708 3.4112 2.8776 5.4095 3.8705 11.7636 5.9185 11.5016 4.3794 18.4386 7.6678 12.723 6.0491 14.936 15.9791 17.243 28.3951z" fill="#a9b4c6"/><path d="m41.7615 86.4849c-3.1573 6.6804-4.7512 15.8841-6.1531 22.9971-.9771 5.002-1.6962 10.05-2.1547 15.126h-30.71084c2.30705-12.416 4.5196-22.346 17.24344-28.3951 6.9364-3.2884 6.6743-1.7493 18.4381-7.6678 1.1729-.5833 2.29-1.2729 3.3371-2.0602z" fill="#f2d6f6"/><path d="m41.7615 86.4849c-3.1573 6.6804-4.7512 15.8841-6.1531 22.9971-.977 5.002-1.6962 10.05-2.1547 15.126h-7.2533c2.8038-12.864 7.9421-29.2576 11.3127-35.6027.3048-.1524.6096-.3048.9143-.4602 1.1719-.5835 2.288-1.2731 3.3341-2.0602z" fill="#f9f3fa"/><path d="m85.6503 86.4849c3.1573 6.6652 4.7573 15.8841 6.1531 22.9971.977 5.002 1.6962 10.05 2.1547 15.126h30.7109c-2.307-12.416-4.52-22.346-17.244-28.3951-6.936-3.2884-6.674-1.7493-18.4376-7.6678-1.1726-.584-2.2896-1.2736-3.3371-2.0602z" fill="#f2d6f6"/><path d="m85.6503 86.4849c3.1573 6.6652 4.7573 15.8841 6.1531 22.9971.977 5.002 1.6962 10.05 2.1547 15.126h7.2529c-2.8035-12.864-7.9417-29.2576-11.3124-35.6027-.3047-.1524-.6095-.3048-.9143-.4602-1.1715-.5842-2.2874-1.2738-3.334-2.0602z" fill="#f9f3fa"/><path d="m90.5997 30.5367s1.4018-1.4628 1.5512-3.1725c.1859-2.173-.4907-4.0991-2.3498-5.4004.8229-1.6061.765-4.0533-.1828-5.5893-1.664-2.7002-5.2328-2.3528-5.2328-2.3528s-.4175-1.1794-.7253-2.0633c-.2913-.829-.7984-1.5654-1.4689-2.13329-.6258-.51573-1.3664-.87329-2.1594-1.0425s-1.6151-.1451-2.3968.07031c-.2642-.78783-.714-1.50057-1.3115-2.07807-.5974-.5775-1.325-1.00282-2.1213-1.24009-.7964-.23726-1.6382-.27949-2.4543-.12313-.8161.15635-1.5826.50669-2.2349 1.02148-.6114-1.00803-1.4894-1.82756-2.5371-2.36819-1.0477-.54064-2.2244-.78136-3.4003-.69561-1.1759.08574-2.3052.49463-3.2634 1.18155-.9582.68691-1.708 1.62514-2.1668 2.71121-.933-.56934-1.9865-.91209-3.0759-1.00074-1.0894-.08866-2.1844.07924-3.1973.49023-1.0128.41099-1.9152 1.05362-2.6347 1.87636-.7196.82274-1.2364 1.80268-1.5088 2.86118-.8412-.2849-1.7399-.3563-2.6155-.2079s-1.7006.512-2.4009 1.0582c-1.3836 1.1032-2.0724 3.2518-1.9444 4.6994-.8399-.0776-1.6844.0862-2.4343.4722-.75.3861-1.374.9782-1.7989 1.7069-1.5481 2.7032.1037 5.2937.1037 5.2937s-3.0476 1.4811-3.328 4.0533c-.1829 1.6915.3047 3.4713 1.5756 4.6019-1.1337.9966-1.8682 2.8496-1.853 4.5715-.0046.8397.2223 1.6645.6556 2.3838s1.0564 1.3054 1.8008 1.6939c0 0-2.0023 4.8762 2.3162 7.1344.9842.4841 2.0584.7582 3.1543.8046.2133 0 2.8099-.0488 2.7429-.3322.2773 1.4172 1.3501 2.5814 2.6087 3.2945 1.2587.7132 2.6911 1.0331 4.1113 1.3013 7.1785 1.3433 14.5236 1.549 21.766.6096 1.9589-.2755 3.9343-.417 5.9125-.4237 2.0784 0 4.4464-.451 6.1165-1.7493 1.6061-1.2526 1.9657-2.7429 2.7825-4.611.8442-1.9292 2.7429-1.6823 3.5261-4.3734.2027-.6947.2315-1.4286.0837-2.137-.1477-.7084-.4674-1.3697-.9309-1.9254 0 0 2.5721-1.5726 2.7611-4.029.0853-.8943-.0363-1.7963-.3555-2.636-.3192-.8398-.8274-1.5948-1.4852-2.2067z" fill="#985ca9"/><path d="m78.4884 28.7356c-3.1786-4.8762-9.7188-4.7421-14.8724-4.9585-4.7512-.1981-11.3493.573-14.2019 4.9585-2.0419 3.1725-5.5162 10.7916-5.3577 16.6064.1524 5.565.7924 9.9688 2.7215 15.2595 4.7208 12.9554 11.7212 13.7874 13.1231 14.08 2.6731.5409 5.4274.5409 8.1005 0 1.4019-.3048 8.4023-1.1246 13.1231-14.08 1.9291-5.2907 2.5661-9.6945 2.7184-15.2595.1616-5.8148-3.2974-13.4339-5.3546-16.6064z" fill="#e7baef"/><path d="m85.0347 44.8422c-.3878-.1373-.7606-.3139-1.1124-.5272-.7497-.4114-1.219-.6583-1.6366-.6735-.061-.0011-.1218.0082-.1798.0274-.0537-.0202-.1103-.0315-.1676-.0335l-17.981.131c-.03.0032-.0596.0093-.0884.0183-.0287-.0093-.0583-.0154-.0883-.0183l-17.981-.131c-.0636.0009-.1266.0133-.1859.0365-.0472-.0165-.0964-.0268-.1463-.0304-.4236 0-.9142.2621-1.6578.6735-.3502.2125-.7208.3891-1.1063.5272-.0777.0012-.1544.0177-.2256.0486-.0713.0308-.1358.0753-.1898.1311-.0541.0557-.0966.1216-.1252.1938s-.0427.1493-.0415.2269c.0012.0777.0177.1543.0485.2256s.0753.1358.1311.1898c.0557.0541.1216.0966.1938.1252s.1493.0427.2269.0415c.4267-.0152.9143-.2621 1.658-.6735.3515-.2119.723-.3885 1.1093-.5272.0476-.0226.0996-.0343.1523-.0343s.1048.0117.1524.0343h.2225c-.1767 2.5935.4693 4.4982 2.176 6.4243.697.7827 1.552 1.4088 2.5086 1.8369.9566.4282 1.9931.6487 3.0411.6469.9934.0093 1.9769-.1974 2.8826-.6057.9056-.4084 1.7116-1.0086 2.3624-1.7592 1.6945-1.9718 2.3162-3.7486 2.243-6.4335l2.5509.0182c.0329-.0037.0654-.0098.0975-.0182.0335 0 .061.0182.0945.0182l2.557-.0182c-.0732 2.6849.5455 4.4647 2.243 6.4335.642.7444 1.4374 1.3412 2.3317 1.7494.8942.4082 1.8662.6182 2.8492.6155 1.0561.0073 2.1015-.2104 3.0668-.6387.9654-.4283 1.8284-1.0573 2.5317-1.8451 1.7067-1.9261 2.3528-3.8308 2.1791-6.4243h.2194c.0561-.0036.1115-.0148.1646-.0336.0436.0196.0897.033.1371.0397.3876.1379.7603.3145 1.1124.5272.7467.4114 1.219.6583 1.6365.6735.1514.0026.2977-.0539.4081-.1575.1104-.1035.1761-.246.1832-.3972.0068-.1572-.0473-.311-.1513-.4291-.104-.1182-.2496-.1915-.4064-.2048zm-26.9684 5.7478c-.5322.618-1.1925 1.1129-1.935 1.4502-.7426.3373-1.5496.5091-2.3652.5034-.8885.0132-1.7694-.1659-2.5822-.5252-.8127-.3593-1.5381-.8903-2.1264-1.5563-1.5238-1.725-2.0571-3.3006-1.8773-5.6351l12.8457.0945c.0701 2.4076-.4632 3.9223-1.9596 5.6685zm20.5927-.1279c-.5895.6636-1.3147 1.1929-2.1265 1.552s-1.6913.5397-2.579.5295c-.816.0059-1.6236-.1657-2.3666-.503-.7431-.3374-1.4039-.8323-1.9366-1.4506-1.5085-1.7462-2.0328-3.2609-1.9627-5.6685l12.8488-.0945c.1768 2.3345-.3505 3.9101-1.8774 5.6351z" fill="#fcf4fb"/><path d="m87.5276 44.891c.0498-.5673.0406-1.1382-.0275-1.7036-.0548-1.3958-.1696-2.7865-.3443-4.1722-.4236-3.328-1.0515-6.7474-3.0141-9.5146-1.7905-2.5301-4.1015-4.6478-6.7779-6.2111-6.4579-3.7516-14.8968-3.5748-21.9612-1.7646-3.5565.9143-6.9028 3.3737-9.3958 6.0313-3.332 3.5557-5.611 7.967-6.5828 12.7421-.192.9356-.3322 1.92-.0396 2.8282.5303 1.6487 3.072 2.5691 4.4556 1.3805.5272-.451 1.0636-1.4049 1.3349-2.0266.1706-.3962.6308-2.6576-.0915-2.8282.6001.1355 1.2236.1286 1.8205-.0201.597-.1487 1.1508-.4351 1.6172-.8363.9143-.8046 1.6-2.368 1.2983-3.5627.6774.3365 1.4216.5169 2.1779.528s1.5054-.1475 2.1924-.464c1.4659-.6887 2.2522-1.9291 2.7855-3.3859-.1249.3475 2.4381.8046 2.6972.7894 1.1627-.0781 2.2649-.5475 3.1269-1.3319.8868-.7893.9995-1.7798 1.1793-2.9257.0516.125.1138.2453.186.3597h-.2255c.1827.1804.3875.3371.6095.4662.5364.5212 2.0601.8077 2.7824.96 1.5459.3293 3.1554.1782 4.613-.4329 1.4576-.6112 2.6937-1.6532 3.5425-2.9865-.5334.8381 1.1459 2.8374 1.6944 3.2975.9933.7838 2.1254 1.3732 3.3372 1.7372-.6796.2773-.4419 2.6636-.2133 3.267.4083 1.0728 1.3927 1.856 2.438 2.2522-.4937-.1828-.8137 1.9261-.8533 2.2431-.1554 1.2739-.1768 2.4381.4358 3.5992.6888 1.3227 2.6057 3.1665 4.2667 2.685.2381-.0538.4546-.1779.6214-.3561s.2763-.4024.3142-.6436zm-11.3128-22.6712.0244-.4145c.1768.1189.3322.2591.4968.3901-.1768 0-.3414.0122-.5212.0244z" fill="#985ca9"/><g fill="#e7baef"><path d="m88.1646 49.8891c-.7345 2.048-2.2004 4.6263-4.0046 5.7905-1.7585 1.1367-3.008.2499-3.1543-1.9353-.1493-2.243.3596-6.0373 1.9413-7.6861 1.5817-1.6487 4.7117-1.5786 5.5223.9814.2438.7893.0701 1.8042-.3047 2.8495z"/><path d="m39.2045 49.8891c.7345 2.048 2.2004 4.6263 4.0046 5.7905s3.008.2499 3.1543-1.9353c.1493-2.243-.3596-6.0373-1.9413-7.6861-1.5818-1.6487-4.7117-1.5786-5.5223.9814-.2438.7893-.061 1.8042.3047 2.8495z"/></g></g></svg>

<svg width="128" height="128" viewBox="0 0 128 128" fill="none" xmlns="http://www.w3.org/2000/svg">
<mask id="mask0_457_1654" style="mask-type:alpha" maskUnits="userSpaceOnUse" x="7" y="2" width="114" height="123">
<path fill-rule="evenodd" clip-rule="evenodd" d="M60.8774 2.75269C77.735 3.10463 91.3116 14.514 102.12 27.4459C113.335 40.8649 122.697 56.546 120.311 73.8659C117.673 93.0227 106.806 111.043 89.4342 119.565C71.9268 128.153 50.7728 126.055 33.9209 116.244C18.4954 107.264 11.4621 89.8608 8.26372 72.3104C5.27568 55.9145 7.35941 38.9727 17.4159 25.6776C27.8082 11.9385 43.646 2.39296 60.8774 2.75269Z" fill="#EFF6F7"/>
</mask>
<g mask="url(#mask0_457_1654)">
<path fill-rule="evenodd" clip-rule="evenodd" d="M60.8774 2.75269C77.735 3.10463 91.3116 14.514 102.12 27.4459C113.335 40.8649 122.697 56.546 120.311 73.8659C117.673 93.0227 106.806 111.043 89.4342 119.565C71.9268 128.153 50.7728 126.055 33.9209 116.244C18.4954 107.264 11.4621 89.8608 8.26372 72.3104C5.27568 55.9145 7.35941 38.9727 17.4159 25.6776C27.8082 11.9385 43.646 2.39296 60.8774 2.75269Z" fill="#EFF6F7"/>
<path d="M107.429 96.2129C100.495 92.9154 100.751 94.4544 88.9844 88.5359C79.3204 83.678 76.1844 73.4319 76.1844 64.3622C76.201 62.7707 75.8823 61.1934 75.2491 59.7332C74.6158 58.2729 73.6822 56.9624 72.5089 55.8868C68.2819 52.0346 63.4605 51.1295 58.3527 53.6133C54.0861 55.6826 51.2487 59.5318 51.2487 64.3622C51.2487 73.4319 48.1005 83.678 38.4487 88.5359C26.6819 94.4544 26.9348 92.9154 20.0015 96.2129C7.2868 102.259 5.06815 112.192 2.755 124.608H124.693C122.368 112.195 120.143 102.262 107.429 96.2129Z" fill="#E7BAEF"/>
<path d="M77.2693 73.2674C75.8156 69.4304 76.1752 68.2937 76.1752 64.3653C76.1926 62.7736 75.8743 61.1961 75.241 59.7358C74.6077 58.2754 73.6736 56.9649 72.4997 55.8899C68.2727 52.0377 63.4514 51.1325 58.3436 53.6163C54.0769 55.6857 51.2396 59.5348 51.2396 64.3653C51.2396 69.3756 50.2704 74.7272 47.7836 79.3626C53.9428 84.0864 72.7497 83.1508 77.2693 73.2674Z" fill="#DB9FE6"/>
<path d="M124.669 124.608H2.74286C5.04991 112.192 7.26246 102.262 19.9863 96.2129C26.9227 92.9245 26.6606 94.4636 38.4244 88.5451C40.4264 87.5523 42.2568 86.2456 43.8461 84.6746C45.824 92.5344 53.9642 98.4163 63.7044 98.4163C73.4446 98.4163 81.6 92.5344 83.5779 84.6746C85.1628 86.2454 86.9891 87.5522 88.9874 88.5451C100.751 94.4636 100.489 92.9245 107.426 96.2129C120.149 102.262 122.362 112.192 124.669 124.608Z" fill="#A9B4C6"/>
<path d="M41.7615 86.4849C38.6042 93.1653 37.0103 102.369 35.6084 109.482C34.6313 114.484 33.9122 119.532 33.4537 124.608H2.74286C5.04991 112.192 7.26246 102.262 19.9863 96.2129C26.9227 92.9245 26.6606 94.4636 38.4244 88.5451C39.5973 87.9618 40.7144 87.2722 41.7615 86.4849V86.4849Z" fill="#F2D6F6"/>
<path d="M41.7615 86.4849C38.6042 93.1653 37.0103 102.369 35.6084 109.482C34.6314 114.484 33.9122 119.532 33.4537 124.608H26.2004C29.0042 111.744 34.1425 95.3504 37.5131 89.0053C37.8179 88.8529 38.1227 88.7005 38.4274 88.5451C39.5993 87.9616 40.7154 87.272 41.7615 86.4849V86.4849Z" fill="#F9F3FA"/>
<path d="M85.6503 86.4849C88.8076 93.1501 90.4076 102.369 91.8034 109.482C92.7804 114.484 93.4996 119.532 93.9581 124.608H124.669C122.362 112.192 120.149 102.262 107.425 96.2129C100.489 92.9245 100.751 94.4636 88.9874 88.5451C87.8148 87.9611 86.6978 87.2715 85.6503 86.4849V86.4849Z" fill="#F2D6F6"/>
<path d="M85.6503 86.4849C88.8076 93.1501 90.4076 102.369 91.8034 109.482C92.7804 114.484 93.4996 119.532 93.9581 124.608H101.211C98.4075 111.744 93.2693 95.3504 89.8986 89.0053C89.5939 88.8529 89.2891 88.7005 88.9843 88.5451C87.8128 87.9609 86.6969 87.2713 85.6503 86.4849V86.4849Z" fill="#F9F3FA"/>
<path d="M90.5997 30.5367C90.5997 30.5367 92.0015 29.0739 92.1509 27.3642C92.3368 25.1912 91.6602 23.2651 89.8011 21.9638C90.624 20.3577 90.5661 17.9105 89.6183 16.3745C87.9543 13.6743 84.3855 14.0217 84.3855 14.0217C84.3855 14.0217 83.968 12.8423 83.6602 11.9584C83.3689 11.1294 82.8618 10.393 82.1913 9.82511C81.5655 9.30938 80.8249 8.95182 80.0319 8.78261C79.2389 8.6134 78.4168 8.63751 77.6351 8.85292C77.3709 8.06509 76.9211 7.35235 76.3236 6.77485C75.7262 6.19735 74.9986 5.77203 74.2023 5.53476C73.4059 5.2975 72.5641 5.25527 71.748 5.41163C70.9319 5.56798 70.1654 5.91832 69.5131 6.43311C68.9017 5.42508 68.0237 4.60555 66.976 4.06492C65.9283 3.52428 64.7516 3.28356 63.5757 3.36931C62.3998 3.45505 61.2705 3.86394 60.3123 4.55086C59.3541 5.23777 58.6043 6.176 58.1455 7.26207C57.2125 6.69273 56.159 6.34998 55.0696 6.26133C53.9802 6.17267 52.8852 6.34057 51.8723 6.75156C50.8595 7.16255 49.9571 7.80518 49.2376 8.62792C48.518 9.45066 48.0012 10.4306 47.7288 11.4891C46.8876 11.2042 45.9889 11.1328 45.1133 11.2812C44.2377 11.4296 43.4127 11.7932 42.7124 12.3394C41.3288 13.4426 40.64 15.5912 40.768 17.0388C39.9281 16.9612 39.0836 17.125 38.3337 17.511C37.5837 17.8971 36.9597 18.4892 36.5348 19.2179C34.9867 21.9211 36.6385 24.5116 36.6385 24.5116C36.6385 24.5116 33.5909 25.9927 33.3105 28.5649C33.1276 30.2564 33.6152 32.0362 34.8861 33.1668C33.7524 34.1634 33.0179 36.0164 33.0331 37.7383C33.0285 38.578 33.2554 39.4028 33.6887 40.1221C34.122 40.8414 34.7451 41.4275 35.4895 41.816C35.4895 41.816 33.4872 46.6922 37.8057 48.9504C38.7899 49.4345 39.8641 49.7086 40.96 49.755C41.1733 49.755 43.7699 49.7062 43.7029 49.4228C43.9802 50.84 45.053 52.0042 46.3116 52.7173C47.5703 53.4305 49.0027 53.7504 50.4229 54.0186C57.6014 55.3619 64.9465 55.5676 72.1889 54.6282C74.1478 54.3527 76.1232 54.2112 78.1014 54.2045C80.1798 54.2045 82.5478 53.7535 84.2179 52.4552C85.824 51.2026 86.1836 49.7123 87.0004 47.8442C87.8446 45.915 89.7433 46.1619 90.5265 43.4708C90.7292 42.7761 90.758 42.0422 90.6102 41.3338C90.4625 40.6254 90.1428 39.9641 89.6793 39.4084C89.6793 39.4084 92.2514 37.8358 92.4404 35.3794C92.5257 34.4851 92.4041 33.5831 92.0849 32.7434C91.7657 31.9036 91.2575 31.1486 90.5997 30.5367V30.5367Z" fill="#985CA9"/>
<path d="M78.4884 28.7356C75.3098 23.8594 68.7696 23.9935 63.616 23.7771C58.8648 23.579 52.2667 24.3501 49.4141 28.7356C47.3722 31.9081 43.8979 39.5272 44.0564 45.342C44.2088 50.907 44.8488 55.3108 46.7779 60.6015C51.4987 73.5569 58.4991 74.3889 59.901 74.6815C62.5741 75.2224 65.3284 75.2224 68.0015 74.6815C69.4034 74.3767 76.4038 73.5569 81.1246 60.6015C83.0537 55.3108 83.6907 50.907 83.843 45.342C84.0046 39.5272 80.5456 31.9081 78.4884 28.7356Z" fill="#E7BAEF"/>
<path d="M85.0347 44.8422C84.6469 44.7049 84.2741 44.5283 83.9223 44.315C83.1726 43.9036 82.7033 43.6567 82.2857 43.6415C82.2247 43.6404 82.1639 43.6497 82.1059 43.6689C82.0522 43.6487 81.9956 43.6374 81.9383 43.6354L63.9573 43.7664C63.9273 43.7696 63.8977 43.7757 63.8689 43.7847C63.8402 43.7754 63.8106 43.7693 63.7806 43.7664L45.7996 43.6354C45.736 43.6363 45.673 43.6487 45.6137 43.6719C45.5665 43.6554 45.5173 43.6451 45.4674 43.6415C45.0438 43.6415 44.5532 43.9036 43.8096 44.315C43.4594 44.5275 43.0888 44.7041 42.7033 44.8422C42.6256 44.8434 42.5489 44.8599 42.4777 44.8908C42.4064 44.9216 42.3419 44.9661 42.2879 45.0219C42.2338 45.0776 42.1913 45.1435 42.1627 45.2157C42.1341 45.2879 42.12 45.365 42.1212 45.4426C42.1224 45.5203 42.1389 45.5969 42.1697 45.6682C42.2005 45.7395 42.245 45.804 42.3008 45.858C42.3565 45.9121 42.4224 45.9546 42.4946 45.9832C42.5668 46.0118 42.6439 46.0259 42.7215 46.0247C43.1482 46.0095 43.6358 45.7626 44.3795 45.3512C44.731 45.1393 45.1025 44.9627 45.4888 44.824C45.5364 44.8014 45.5884 44.7897 45.6411 44.7897C45.6938 44.7897 45.7459 44.8014 45.7935 44.824H46.016C45.8393 47.4175 46.4853 49.3222 48.192 51.2483C48.889 52.031 49.744 52.6571 50.7006 53.0852C51.6572 53.5134 52.6937 53.7339 53.7417 53.7321C54.7351 53.7414 55.7186 53.5347 56.6243 53.1264C57.5299 52.718 58.3359 52.1178 58.9867 51.3672C60.6812 49.3954 61.3029 47.6186 61.2297 44.9337L63.7806 44.9519C63.8135 44.9482 63.846 44.9421 63.8781 44.9337C63.9116 44.9337 63.9391 44.9519 63.9726 44.9519L66.5296 44.9337C66.4564 47.6186 67.0751 49.3984 68.7726 51.3672C69.4146 52.1116 70.21 52.7084 71.1043 53.1166C71.9985 53.5248 72.9705 53.7348 73.9535 53.7321C75.0096 53.7394 76.055 53.5217 77.0203 53.0934C77.9857 52.6651 78.8487 52.0361 79.552 51.2483C81.2587 49.3222 81.9048 47.4175 81.7311 44.824H81.9505C82.0066 44.8204 82.062 44.8092 82.1151 44.7904C82.1587 44.81 82.2048 44.8234 82.2522 44.8301C82.6398 44.968 83.0125 45.1446 83.3646 45.3573C84.1113 45.7687 84.5836 46.0156 85.0011 46.0308C85.1525 46.0334 85.2988 45.9769 85.4092 45.8733C85.5196 45.7698 85.5853 45.6273 85.5924 45.4761C85.5992 45.3189 85.5451 45.1651 85.4411 45.047C85.3371 44.9288 85.1915 44.8555 85.0347 44.8422ZM58.0663 50.59C57.5341 51.208 56.8738 51.7029 56.1313 52.0402C55.3887 52.3775 54.5817 52.5493 53.7661 52.5436C52.8776 52.5568 51.9967 52.3777 51.1839 52.0184C50.3712 51.6591 49.6458 51.1281 49.0575 50.4621C47.5337 48.7371 47.0004 47.1615 47.1802 44.827L60.0259 44.9215C60.096 47.3291 59.5627 48.8438 58.0663 50.59V50.59ZM78.659 50.4621C78.0695 51.1257 77.3443 51.655 76.5325 52.0141C75.7207 52.3732 74.8412 52.5538 73.9535 52.5436C73.1375 52.5495 72.3299 52.3779 71.5869 52.0406C70.8438 51.7032 70.183 51.2083 69.6503 50.59C68.1418 48.8438 67.6175 47.3291 67.6876 44.9215L80.5364 44.827C80.7132 47.1615 80.1859 48.7371 78.659 50.4621V50.4621Z" fill="#FCF4FB"/>
<path d="M87.5276 44.891C87.5774 44.3237 87.5682 43.7528 87.5001 43.1874C87.4453 41.7916 87.3305 40.4009 87.1558 39.0152C86.7322 35.6872 86.1043 32.2678 84.1417 29.5006C82.3512 26.9705 80.0402 24.8528 77.3638 23.2895C70.9059 19.5379 62.467 19.7147 55.4026 21.5249C51.8461 22.4392 48.4998 24.8986 46.0068 27.5562C42.6748 31.1119 40.3958 35.5232 39.424 40.2983C39.232 41.2339 39.0918 42.2183 39.3844 43.1265C39.9147 44.7752 42.4564 45.6956 43.84 44.507C44.3672 44.056 44.9036 43.1021 45.1749 42.4804C45.3455 42.0842 45.8057 39.8228 45.0834 39.6522C45.6835 39.7877 46.307 39.7808 46.9039 39.6321C47.5009 39.4834 48.0547 39.197 48.5211 38.7958C49.4354 37.9912 50.1211 36.4278 49.8194 35.2331C50.4968 35.5696 51.241 35.75 51.9973 35.7611C52.7536 35.7722 53.5027 35.6136 54.1897 35.2971C55.6556 34.6084 56.4419 33.368 56.9752 31.9112C56.8503 32.2587 59.4133 32.7158 59.6724 32.7006C60.8351 32.6225 61.9373 32.1531 62.7993 31.3687C63.6861 30.5794 63.7988 29.5889 63.9786 28.443C64.0302 28.568 64.0924 28.6883 64.1646 28.8027H63.9391C64.1218 28.9831 64.3266 29.1398 64.5486 29.2689C65.085 29.7901 66.6087 30.0766 67.331 30.2289C68.8769 30.5582 70.4864 30.4071 71.944 29.796C73.4016 29.1848 74.6377 28.1428 75.4865 26.8095C74.9531 27.6476 76.6324 29.6469 77.1809 30.107C78.1742 30.8908 79.3063 31.4802 80.5181 31.8442C79.8385 32.1215 80.0762 34.5078 80.3048 35.1112C80.7131 36.184 81.6975 36.9672 82.7428 37.3634C82.2491 37.1806 81.9291 39.2895 81.8895 39.6065C81.7341 40.8804 81.7127 42.0446 82.3253 43.2057C83.0141 44.5284 84.931 46.3722 86.592 45.8907C86.8301 45.8369 87.0466 45.7128 87.2134 45.5346C87.3802 45.3564 87.4897 45.1322 87.5276 44.891ZM76.2148 22.2198L76.2392 21.8053C76.416 21.9242 76.5714 22.0644 76.736 22.1954C76.5592 22.1954 76.3946 22.2076 76.2148 22.2198V22.2198Z" fill="#985CA9"/>
<path d="M88.1646 49.8891C87.4301 51.9371 85.9642 54.5154 84.16 55.6796C82.4015 56.8163 81.152 55.9295 81.0057 53.7443C80.8564 51.5013 81.3653 47.707 82.947 46.0582C84.5287 44.4095 87.6587 44.4796 88.4693 47.0396C88.7131 47.8289 88.5394 48.8438 88.1646 49.8891Z" fill="#E7BAEF"/>
<path d="M39.2045 49.8891C39.939 51.9371 41.4049 54.5154 43.2091 55.6796C45.0133 56.8438 46.2171 55.9295 46.3634 53.7443C46.5127 51.5013 46.0038 47.707 44.4221 46.0582C42.8403 44.4095 39.7104 44.4796 38.8998 47.0396C38.656 47.8289 38.8388 48.8438 39.2045 49.8891Z" fill="#E7BAEF"/>
</g>
</svg>
